src/images/single-assets/SPEC.svg

<svg width="233" height="256" viewBox="0 0 233 256" fill="none" xmlns="http://www.w3.org/2000/svg">
<path d="M171.416 168.155L114.994 82.4553V196.943L171.416 168.155Z" fill="#0082FF"/>
<path d="M174.419 171.118L114.994 201.541V196.994L62.6367 168.155L114.994 82.4809V74.6901L58.416 167.286L7.6904 186.802L114.994 11.1371V74.6645L175.662 167.261L232.628 189.152L117.039 0L0 191.527L117.039 256L231.385 193.009L174.419 171.118ZM114.994 250.278L7.61272 191.119L59.633 171.118L114.968 201.617V250.278H114.994Z" fill="#0082FF"/>
</svg>

<svg xmlns="http://www.w3.org/2000/svg" width="233" height="256" fill="none"><path fill="#0082FF" d="m171.416 168.155-56.422-85.7v114.488z"/><path fill="#0082FF" d="m174.419 171.118-59.425 30.423v-4.547l-52.357-28.839 52.357-85.674v-7.79l-56.578 92.595L7.69 186.802 114.994 11.137v63.528l60.668 92.596 56.966 21.891L117.039 0 0 191.527 117.039 256l114.346-62.991zm-59.425 79.16L7.613 191.119l52.02-20.001 55.335 30.499v48.661z"/></svg>
